X: 13
T: Madame Ricamiers Waltz
R: waltz
B: Bland & Weller, eds. "24 Favorite Country Dances, Hornpipes and Reels", 1803, London p.7 #13
S: http://imslp.org/wiki/24_Favorite_Country_Dances,_Hornpipes_and_Reels_(Various)
M: 3/8
L: 1/16
Z: 2012 John Chambers <jc:trillian.mit.edu>
K: F
|:\
{e}f2f2a2 | {e}f2f2a2 | g2gfga | b2g2g2 |\
{e}f2f2a2 | {e}f2f2a2 | gagfed | c4 z2 :|
|:\
c4 Ac | f2c2c2 | {c}B2G2 GB | A2F2F2 |\
c4 Ac | f2c2c2 | B2G2 EG | F4 z2 :|
|:\
!p!A2(AGAB) | c2A2A2 | B2(BABc) | d2B2B2 |\
egbgec | fefcAF | EGBGFE | F4 :|
%%begintext align
%% Set & hands across back again :|
%% lead down the middle, up again :|.
%% Allemand :|:
%% Swing Corners .
%%endtext

%%sep 1 1 500
%%sep 1 1 500
